X: 26477
T: Michael Burke's
R: jig
M: 6/8
K: Dmajor
|:FAA ABc|dcB AFA|BEE EFA|BcB AFD|
FAA ABc|dcB AFA|dcd efg|fdd d3:|
|:dfd cec|BcB AFA|BEE EFA|BcB AFA|
dfd cec|BcB AFA|dcd efg|fdd d3:|

